X:85
T:Fermoy Lasses
M:C|
L:1/8
S:G (x3)
R:Reel
K:G
"Em"GE~E2 BE~E2 | "G"GE~E2 "D"AB{c}BA | "C"GE~E2 BE~E2 | "D"AFDF AcBA |
"Em"GE~E2 BE~E2 | "G"GE~E2 "D"AB{c}BA | "C"G2GF GBdB | "D"AFDF AcBA :|
|: "G"G2BG dG BG | "Bm"G2Bd efg2 | "C"G2BG DGBG | "D"AFDF AcBA |
"G"G2BG dG BG | "Bm"G2Bd ef ga | "C"(g3e d3B | "D"AFDF AcBA:|
